packages/foundations/assets/icons/functional/images/logos/s_bahn_16.svg

<svg width="16" height="16" viewBox="0 0 16 16" fill="none" xmlns="http://www.w3.org/2000/svg">
<g clip-path="url(#clip0_185_1717)">
<path fill-rule="evenodd" clip-rule="evenodd" d="M8.00013 1.6C11.5346 1.6 14.4 4.46544 14.4 8.00015C14.4 11.5346 11.5346 14.4 8.00013 14.4C4.46521 14.4 1.59998 11.5348 1.59998 8.00015C1.59998 4.46529 4.46516 1.6 8.00013 1.6ZM8.00013 3.2C5.34883 3.2 3.19998 5.34893 3.19998 8.00015C3.19998 10.6511 5.34887 12.8 8.00013 12.8C10.6509 12.8 12.8 10.651 12.8 8.00015C12.8 5.34908 10.651 3.2 8.00013 3.2ZM7.77951 4.8C8.66787 4.8 9.46373 5.10164 10.0962 5.60937V6.67585C9.54889 6.06519 8.72472 5.52836 7.75811 5.52836C7.21104 5.52836 6.89827 5.83 6.89827 6.18311C6.89827 6.69142 7.31661 6.90358 7.86705 7.0605L8.68549 7.26615C9.57909 7.49596 10.4727 7.84526 10.4727 9.06614C10.4727 10.0523 9.54889 11.2 7.99284 11.2C7.12587 11.2 6.147 10.7952 5.60015 10.2877V9.00752C6.11868 9.77996 7.0405 10.3756 7.99284 10.3756C8.57558 10.3756 9.0444 10.0304 9.0444 9.66226C9.0444 9.17387 8.61022 8.96331 8.04695 8.79163L7.3571 8.5972C6.45471 8.33832 5.52725 7.96617 5.52725 6.7347C5.52725 5.47667 6.71368 4.8 7.77951 4.8Z" fill="#1A1C1F"/>
</g>
<defs>
<clipPath id="clip0_185_1717">
<rect width="16" height="16" fill="white"/>
</clipPath>
</defs>
</svg>

<svg xmlns="http://www.w3.org/2000/svg" width="16" height="16" fill="none"><g clip-path="url(#a)"><path fill="#1A1C1F" fill-rule="evenodd" d="M8 1.6a6.4 6.4 0 1 1 0 12.8A6.4 6.4 0 0 1 8 1.6m0 1.6a4.8 4.8 0 1 0 0 9.6 4.8 4.8 0 0 0 0-9.6m-.22 1.6c.888 0 1.684.302 2.316.81v1.066c-.547-.61-1.371-1.148-2.338-1.148-.547 0-.86.302-.86.655 0 .508.419.72.97.878l.817.205c.894.23 1.788.58 1.788 1.8 0 .986-.924 2.134-2.48 2.134-.867 0-1.846-.405-2.393-.912v-1.28c.519.772 1.44 1.368 2.393 1.368.583 0 1.051-.346 1.051-.714 0-.488-.434-.699-.997-.87l-.69-.195c-.902-.259-1.83-.63-1.83-1.862C5.527 5.477 6.714 4.8 7.78 4.8" clip-rule="evenodd"/></g><defs><clipPath id="a"><path fill="#fff" d="M0 0h16v16H0z"/></clipPath></defs></svg>
